mobile/apps/auth/assets/custom-icons/icons/amazon.svg

<svg xmlns="http://www.w3.org/2000/svg" viewBox="0 0 500 500"><path fill="#FF6200" d="M16.05 385.03c-2.16 1.71-2.61 4.55-1.36 8.53 1.14 3.53 3.81 7.91 8.02 13.14 16.94 20.93 37.13 38.33 60.56 52.2 23.43 13.88 48.51 24.11 75.24 30.71 26.84 6.71 54.25 10.07 82.22 10.07 35.83 0 69.95-5.24 102.36-15.7 32.42-10.35 59.49-24.91 81.21-43.67 7.62-6.71 11.43-12.06 11.43-16.04 0-1.48-.63-2.96-1.88-4.44-1.7-1.7-3.75-2.27-6.14-1.7-2.39.57-5.74 1.99-10.06 4.26-20.82 10.92-46.18 19.62-76.09 26.1-29.8 6.6-60.91 9.9-93.32 9.9-40.15 0-78.93-5.46-116.35-16.38-37.42-10.92-70.57-27.98-99.46-51.18-4.21-3.3-7.62-5.4-10.24-6.31-2.5-.91-4.54-.74-6.14.51Z"/><path fill="#FF6200" d="M395.12 393.57c-2.39 2.28-3.01 4.67-1.88 7.17.8 1.82 2.34 2.84 4.61 3.07 2.27.34 5.52.11 9.72-.68 6.83-1.48 13.94-2.51 21.33-3.07 7.39-.46 13.82-.35 19.28.34 5.46.79 8.87 2.16 10.23 4.09 2.05 3.07 1.31 9.55-2.21 19.45-3.42 9.89-8.08 19.5-13.99 28.83-2.28 3.75-3.64 6.71-4.1 8.87-.45 2.16.12 3.98 1.71 5.46 1.02 1.02 2.16 1.54 3.41 1.54 3.3 0 8.08-2.9 14.33-8.7 11.26-9.78 19.16-21.39 23.71-34.81 2.51-6.93 4.04-14.21 4.61-21.83.57-7.62-.28-13.08-2.56-16.38-2.16-3.19-6.94-5.8-14.33-7.85-7.28-2.05-14.61-3.07-22.01-3.07-14.44 0-28.15 3.41-41.11 10.24-4.78 2.61-8.36 5.06-10.75 7.33Z"/><path fill="#fff" d="M209.76 387.72c-21.15 0-39.76-4.62-55.84-13.85-16.08-9.53-28.59-22.63-37.52-39.31-8.93-16.97-13.4-36.47-13.4-58.51 0-26.5 6.55-49.73 19.65-69.68 13.4-19.95 32.31-35.29 56.73-46.01 24.72-10.72 53.6-16.08 86.66-16.08 15.19 0 27.54 1.04 37.07 3.13v-9.38c0-22.64-4.17-39.46-12.5-50.48-8.34-11.32-21-16.97-37.97-16.97-27.4 0-44.97 14.44-52.71 43.32-2.38 8.34-7.3 11.92-14.74 10.72l-60.75-10.72c-4.47-.89-7.59-2.82-9.38-5.8-1.49-2.98-1.64-7-.45-12.06 7.75-30.38 24.13-53.9 49.14-70.58C189.06 8.49 220.78 0 258.89 0c45.27 0 79.66 12.21 103.19 36.63 23.82 24.42 35.73 60 35.73 106.76v224.68c0 3.27-1.19 6.1-3.57 8.48-2.09 2.09-4.77 3.13-8.04 3.13h-58.07c-7.15 0-11.62-3.87-13.4-11.61l-8.94-41.99h-3.57c-8.04 19.65-20.1 34.84-36.18 45.56-15.78 10.72-34.55 16.08-56.28 16.08Zm-9.38-122.39c0 15.78 4.02 28.44 12.06 37.97 8.34 9.23 19.5 13.84 33.5 13.84 18.46 0 32.61-8.19 42.43-24.56 9.83-16.68 14.74-40.5 14.74-71.47v-23.68c-8.33-1.49-16.23-2.23-23.67-2.23-24.42 0-43.78 6.4-58.07 19.21-14 12.5-20.99 29.48-20.99 50.92Z" style="mix-blend-mode:difference"/></svg>

<svg width="500" height="500" viewBox="0 0 500 500" xmlns="http://www.w3.org/2000/svg">
    <path d="M16.05 385.03C13.89 386.74 13.44 389.58 14.69 393.56C15.83 397.09 18.5 401.47 22.71 406.7C39.65 427.63 59.84 445.03 83.27 458.9C106.7 472.78 131.78 483.01 158.51 489.61C185.35 496.32 212.76 499.68 240.73 499.68C276.56 499.68 310.68 494.44 343.09 483.98C375.51 473.63 402.58 459.07 424.3 440.31C431.92 433.6 435.73 428.25 435.73 424.27C435.73 422.79 435.1 421.31 433.85 419.83C432.15 418.13 430.1 417.56 427.71 418.13C425.32 418.7 421.97 420.12 417.65 422.39C396.83 433.31 371.47 442.01 341.56 448.49C311.76 455.09 280.65 458.39 248.24 458.39C208.09 458.39 169.31 452.93 131.89 442.01C94.47 431.09 61.32 414.03 32.43 390.83C28.22 387.53 24.81 385.43 22.19 384.52C19.69 383.61 17.65 383.78 16.05 385.03Z"
          fill="#FF6200"/>
    <path d="M395.12 393.57C392.73 395.85 392.11 398.24 393.24 400.74C394.04 402.56 395.58 403.58 397.85 403.81C400.12 404.15 403.37 403.92 407.57 403.13C414.4 401.65 421.51 400.62 428.9 400.06C436.29 399.6 442.72 399.71 448.18 400.4C453.64 401.19 457.05 402.56 458.41 404.49C460.46 407.56 459.72 414.04 456.2 423.94C452.78 433.83 448.12 443.44 442.21 452.77C439.93 456.52 438.57 459.48 438.11 461.64C437.66 463.8 438.23 465.62 439.82 467.1C440.84 468.12 441.98 468.64 443.23 468.64C446.53 468.64 451.31 465.74 457.56 459.94C468.82 450.16 476.72 438.55 481.27 425.13C483.78 418.2 485.31 410.92 485.88 403.3C486.45 395.68 485.6 390.22 483.32 386.92C481.16 383.73 476.38 381.12 468.99 379.07C461.71 377.02 454.38 376 446.98 376C432.54 376 418.83 379.41 405.87 386.24C401.09 388.85 397.51 391.3 395.12 393.57Z"
          fill="#FF6200"/>
    <g style="mix-blend-mode:difference">
        <path d="M209.76 387.72C188.61 387.72 170 383.1 153.92 373.87C137.84 364.34 125.33 351.24 116.4 334.56C107.47 317.59 103 298.09 103 276.05C103 249.55 109.55 226.32 122.65 206.37C136.05 186.42 154.96 171.08 179.38 160.36C204.1 149.64 232.98 144.28 266.04 144.28C281.23 144.28 293.58 145.32 303.11 147.41V138.03C303.11 115.39 298.94 98.57 290.61 87.55C282.27 76.23 269.61 70.58 252.64 70.58C225.24 70.58 207.67 85.02 199.93 113.9C197.55 122.24 192.63 125.82 185.19 124.62L124.44 113.9C119.97 113.01 116.85 111.08 115.06 108.1C113.57 105.12 113.42 101.1 114.61 96.04C122.36 65.66 138.74 42.14 163.75 25.46C189.06 8.49 220.78 0 258.89 0C304.16 0 338.55 12.21 362.08 36.63C385.9 61.05 397.81 96.63 397.81 143.39V368.07C397.81 371.34 396.62 374.17 394.24 376.55C392.15 378.64 389.47 379.68 386.2 379.68H328.13C320.98 379.68 316.51 375.81 314.73 368.07L305.79 326.08H302.22C294.18 345.73 282.12 360.92 266.04 371.64C250.26 382.36 231.49 387.72 209.76 387.72ZM200.38 265.33C200.38 281.11 204.4 293.77 212.44 303.3C220.78 312.53 231.94 317.14 245.94 317.14C264.4 317.14 278.55 308.95 288.37 292.58C298.2 275.9 303.11 252.08 303.11 221.11V197.43C294.78 195.94 286.88 195.2 279.44 195.2C255.02 195.2 235.66 201.6 221.37 214.41C207.37 226.91 200.38 243.89 200.38 265.33Z"
              fill="white"/>
    </g>
</svg>
